X:169
T:O’er Boggie. RH.169
R:Reel
S:Rev.R.Harrison’s MS,c1815,Cumbria
O:England
A:Temple Sowerby,Cumbria
Z:vmp.Simon Wilson. Review PJH, 2008.
M:C
L:1/8
Q:2/4=60
K:C
G|cdcA cGGA|c>dcAG3c|\
Addc dega|gedc{B}A2G:|!
|:B|c2e/f/g cc e/f/a/e/|c>dcA GAcG|\
Addc dega|gedc{B}A2G:|

